en/_assets/wiki/svg/write.svg

<svg xmlns="http://www.w3.org/2000/svg" xmlns:xlink="http://www.w3.org/1999/xlink" width="14" height="14" class="yc-icon" fill="currentColor" stroke="none" aria-hidden="true"><svg viewBox="0 0 14 14" xmlns="http://www.w3.org/2000/svg"><path d="M13.1191 0.675781C13.043 0.650391 12.9668 0.625 12.8906 0.625H9.23438C8.87891 0.625 8.625 0.904297 8.625 1.23438C8.625 1.58984 8.87891 1.84375 9.23438 1.84375H11.418L7.99023 5.27148C7.73633 5.52539 7.73633 5.90625 7.99023 6.13477C8.21875 6.38867 8.59961 6.38867 8.85352 6.13477L12.2812 2.70703V4.89062C12.2812 5.24609 12.5352 5.5 12.8906 5.5C13.2207 5.5 13.5 5.24609 13.5 4.89062V1.23438C13.5 1.1582 13.4746 1.08203 13.4492 1.00586C13.373 0.853516 13.2715 0.751953 13.1191 0.675781ZM0.855469 13.5996C0.931641 13.625 1.00781 13.625 1.10938 13.625H4.74023C5.0957 13.625 5.375 13.3711 5.375 13.0156C5.375 12.6855 5.0957 12.4062 4.76562 12.4062H2.55664L5.98438 8.97852C6.23828 8.75 6.23828 8.36914 5.98438 8.14062C5.75586 7.88672 5.375 7.88672 5.14648 8.14062L1.71875 11.5684V9.35938C1.71875 9.0293 1.43945 8.75 1.10938 8.75C0.753906 8.75 0.5 9.0293 0.5 9.35938V13.0156C0.5 13.1172 0.5 13.1934 0.525391 13.2695C0.601562 13.3965 0.703125 13.5234 0.855469 13.5996Z"></path></svg></svg>

<svg xmlns="http://www.w3.org/2000/svg" width="14" height="14" fill="currentColor" aria-hidden="true" class="yc-icon"><svg xmlns="http://www.w3.org/2000/svg" viewBox="0 0 14 14"><path d="M13.12.676a.74.74 0 0 0-.23-.051H9.235c-.355 0-.609.28-.609.61 0 .355.254.609.61.609h2.183L7.99 5.27c-.254.254-.254.635 0 .864.229.254.61.254.864 0l3.427-3.428v2.184c0 .355.254.609.61.609.33 0 .609-.254.609-.61V1.235a.741.741 0 0 0-.05-.228.694.694 0 0 0-.33-.33ZM.854 13.6a.782.782 0 0 0 .254.025H4.74c.356 0 .635-.254.635-.61 0-.33-.28-.609-.61-.609H2.558L5.984 8.98a.556.556 0 0 0 0-.838.556.556 0 0 0-.838 0L1.72 11.568V9.36c0-.33-.28-.609-.61-.609-.355 0-.609.28-.609.61v3.656c0 .101 0 .177.025.254a.825.825 0 0 0 .33.33Z"/></svg></svg>
